X:1
T:Title
%%score { 1 | 2 }
L:1/8
M:3/4
K:Ab
V:1 treble nm="Grand Piano"
V:2 bass 
V:1
 z2 z[Q:1/4=100] [CE] [DF][CE] | [Ec]3 [CE] [_C=D][=CE] | F3 F FF | [Fd]3 [Fd] cB |[M:3/8] c3 | %5
 cc_c |[M:3/4] c3 [EA]/-(3:2:2[EA]/B/4 [FA][DF] | [CE]3 [CE] [DF][Fd] | cA B2 c2 |[M:3/8] [CA]3 | %10
 ccc |[M:3/4] c3 c ee | [Gd]3 [Gd] [Gd][Ac] | [GB]3 [GB] [Ac][Bd] |[M:3/8] c3 | eec | %16
[M:3/4] [EA]3 [CE] [DF][Fd] | [Ec]3 [CE] [DF][Fd] | cA B2 c2 |[M:3/8] [CA]3 |] %20
V:2
 z2 z [A,,A,] [A,,A,][A,,A,] | [A,,A,]3 [A,,A,] [A,,A,][A,,A,] | [D,A,D]3 [D,A,D] [D,A,D][D,A,D] | %3
 [B,,B,]3 [B,,B,] [E,A,E][E,G,E] |[M:3/8] [A,E]3 | [A,E][A,E][A,=D] | %6
[M:3/4] [A,E]3 [C,A,] [D,A,][D,A,] | [A,,A,]3 [A,,A,] [D,A,][B,,A,] | %8
 [E,A,E][E,C] [E,G,D]2 [E,G,E]2 |[M:3/8] [A,,A,]3 | [A,E][A,E][A,E] | %11
[M:3/4] [A,E]3 [A,E] [A,CA][A,CA] | [E,B,]3 [E,B,] [E,B,][E,E] | [E,E]3 [E,E] [E,E][E,E] | %14
[M:3/8][K:treble] [A,EA]3 | [A,CA][A,CA][K:bass][A,E] |[M:3/4] [C,A,]3 [A,,A,] [D,A,][D,A,] | %17
 [A,,A,]3 [A,,A,] [D,A,][B,,A,] | [E,A,E][E,C] [E,G,D]2 [E,G,E]2 |[M:3/8] [A,,A,]3 |] %20

